X:1
T:Kathmandu, 87.87.87 D
T:Kathmandu, 87.87.87 D
T:Ira David Sankey, 1902
T:Public Domain Courtesy of the Cyber Hymnal™
C:Ira David Sankey, 1902
Z:Public Domain
Z:Courtesy of the Cyber Hymnal™
%%score ( 1 2 ) ( 3 4 )
L:1/8
Q:1/4=108
M:4/4
K:Ab
V:1 treble 
V:2 treble 
V:3 bass 
V:4 bass 
V:1
 [CE]>[CE] | [CA]2 [FA]2 [EA]2 [DA]2 | [CA]2 [CA]4 [EA]>[EB] | [Ec]2 [Ec]2 [EB]2 [=DA]2 | %4
 [EB]6 [EB]>[Ec] | [Ed]2 [Ed]2 [Ec]2 [EB]2 | [Ec]2 [CA]4 [EA]>[EA] | [=DA]2 [DA]2 [DG]2 [DF]2 | %8
 [EG]6 [DF]>[DE] | [CA]2 [FA]2 [EA]2 [DA]2 | [CA]2 [CA]4 [EA]>[EB] | [Ec]2 [Ec]2 [Ed]2 [Ec]2 | %12
 [EB]6 [Ec]>[Ed] | [Ae]2 [Ae]2 [Ae]2 [Af]2 | [Ae]2 [Ec]4 [CA]>[DB] | [Ec]2 [Fd]2 B3 z A | %16
 [CA]6 [Ec]>[Ed] | [Ae]2 [Ae]2 [Ae]2 [Af]2 | [Ae]2 [Ec]4 [Ec]>[Ec] | [Ec]2 [Ec]2 [Ed]2 [Ec]2 | %20
 [EB]6 [Ec]>[Ed] | [Ae]2 [Ec]2 [EA]2 [CE]2 | [DF]2 [Fd]4 [Fc]>[FB] | [EA]2 E2 c3 z B | [CA]6 |] %25
V:2
 x2 | x8 | x8 | x8 | x8 | x8 | x8 | x8 | x8 | x8 | x8 | x8 | x8 | x8 | x8 | x4 D2 D2 x | x8 | x8 | %18
 x8 | x8 | x8 | x8 | x8 | x2 E2 E2 D2 x | x6 |] %25
V:3
 [A,,A,]>[A,,A,] | [A,,A,]2 [D,A,]2 [C,A,]2 [B,,E,]2 | [A,,E,]2 [A,,E,]4 [C,A,]>[E,G,] | %3
 A,2 A,2 [G,B,]2 [F,B,]2 | [E,G,]6 [E,G,]>[E,A,] | [E,B,]2 [E,B,]2 [E,A,]2 [E,G,]2 | %6
 A,2 A,4 [C,A,]>[C,A,] | [B,,F,]2 [B,,C]2 [B,,B,]2 [B,,B,]2 | [E,B,]6 [E,G,]>[E,G,] | %9
 [A,,A,]2 [D,A,]2 [C,A,]2 [B,,E,]2 | [A,,E,]2 [A,,E,]4 [C,A,]>[E,G,] | A,2 A,2 [G,B,]2 A,2 | %12
 [E,G,]6 A,>[A,B,] | [A,C]2 [A,C]2 [A,C]2 [A,D]2 | [A,C]2 A,4 [A,,A,]>[A,,A,] | %15
 [A,,A,]2 [D,A,]2 [E,A,]2 [E,G,]2 x | [A,,A,]6 A,>[A,B,] | [A,C]2 [A,C]2 [A,C]2 [A,D]2 | %18
 [A,C]2 A,4 A,>A, | A,2 [A,,A,]2 [G,,B,]2 [A,,A,]2 | [E,G,]6 A,>[A,B,] | %21
 [A,C]2 A,2 [C,A,]2 [A,,A,]2 | [D,A,]2 [D,A,]4 [D,E]>[D,D] | [E,C]2 [E,C]2 [E,A,]2 [E,G,]2 x | %24
 [A,,A,]6 |] %25
V:4
 x2 | x8 | x8 | A,2 A,2 x4 | x8 | x8 | A,2 A,4 x2 | x8 | x8 | x8 | x8 | A,2 A,2 A,2 x2 | %12
 x6 A,3/2 x/ | x8 | x2 A,4 x2 | x9 | x6 A,3/2 x/ | x8 | x2 A,4 A,3/2 x/ | A,2 x6 | x6 A,3/2 x/ | %21
 x2 A,2 x4 | x8 | x9 | x6 |] %25

